assets/icons/24px/stroke/full-screen-arrow-24px.svg

<svg width="24" height="24" viewBox="0 0 24 24" fill="none" xmlns="http://www.w3.org/2000/svg">
<g clip-path="url(#clip0_878_22707)">
<path fill-rule="evenodd" clip-rule="evenodd" d="M21 9C20.4477 9 20 8.55228 20 8L20 5.41423L15.7071 9.70717C15.3166 10.0977 14.6834 10.0977 14.2929 9.70718C13.9024 9.31665 13.9024 8.68349 14.2929 8.29296L18.5858 4L16 4C15.4477 4 15 3.55229 15 3C15 2.44772 15.4477 2 16 2H21C21.5523 2 22 2.44772 22 3L22 8C22 8.55228 21.5523 9 21 9ZM9.00004 21C9.00004 21.5523 8.55232 22 8.00004 22L3.00004 22C2.44775 22 2.00004 21.5523 2.00004 21L2.00004 16C2.00004 15.4477 2.44775 15 3.00004 15C3.55232 15 4.00004 15.4477 4.00004 16V18.5858L8.29293 14.2929C8.68346 13.9024 9.31662 13.9024 9.70714 14.293C10.0977 14.6835 10.0977 15.3166 9.70714 15.7072L5.41427 20L8.00004 20C8.55232 20 9.00004 20.4477 9.00004 21Z" fill="white"/>
</g>
<defs>
<clipPath id="clip0_878_22707">
<rect width="24" height="24" fill="white"/>
</clipPath>
</defs>
</svg>

<svg width="24" height="24" fill="none" xmlns="http://www.w3.org/2000/svg"><g clip-path="url(#clip0_878_22707)"><path fill-rule="evenodd" clip-rule="evenodd" d="M21 9a1 1 0 0 1-1-1V5.414l-4.293 4.293a1 1 0 1 1-1.414-1.414L18.586 4H16a1 1 0 1 1 0-2h5a1 1 0 0 1 1 1v5a1 1 0 0 1-1 1zM9 21a1 1 0 0 1-1 1H3a1 1 0 0 1-1-1v-5a1 1 0 1 1 2 0v2.586l4.293-4.293a1 1 0 1 1 1.414 1.414L5.414 20H8a1 1 0 0 1 1 1z" fill="#fff"/></g><defs><clipPath id="clip0_878_22707"><path fill="#fff" d="M0 0H24V24H0z"/></clipPath></defs></svg>
